images/example9.svg

<svg width="40" height="42" viewBox="0 0 40 42" fill="none" xmlns="http://www.w3.org/2000/svg">
<path d="M2.00989 22.8733C0.277196 22.2254 0.277194 19.7746 2.00989 19.1267L12.2655 15.2919C13.0172 15.0108 13.5281 14.3076 13.5631 13.5058L14.0411 2.56716C14.1218 0.719063 16.4527 -0.0382924 17.6043 1.40939L24.4206 9.97802C24.9202 10.6061 25.7469 10.8747 26.5202 10.6602L37.0712 7.73456C38.8538 7.24027 40.2944 9.22304 39.2735 10.7657L33.2305 19.8962C32.7876 20.5654 32.7876 21.4346 33.2305 22.1038L39.2735 31.2343C40.2944 32.777 38.8538 34.7597 37.0712 34.2654L26.5202 31.3398C25.7469 31.1253 24.9202 31.3939 24.4206 32.022L17.6043 40.5906C16.4527 42.0383 14.1218 41.2809 14.0411 39.4328L13.5631 28.4942C13.5281 27.6924 13.0172 26.9892 12.2655 26.7081L2.00989 22.8733Z" fill="white"/>
</svg>

<svg width="40" height="42" fill="none" xmlns="http://www.w3.org/2000/svg"><path d="M2.01 22.873c-1.733-.648-1.733-3.098 0-3.746l10.255-3.835a2 2 0 0 0 1.298-1.786l.478-10.939c.08-1.848 2.412-2.605 3.563-1.158l6.817 8.569a2 2 0 0 0 2.1.682l10.55-2.925c1.783-.495 3.223 1.488 2.203 3.03l-6.044 9.131a2 2 0 0 0 0 2.208l6.044 9.13c1.02 1.543-.42 3.526-2.203 3.031l-10.55-2.925a2 2 0 0 0-2.1.682l-6.817 8.569c-1.151 1.447-3.482.69-3.563-1.158l-.478-10.939a2 2 0 0 0-1.298-1.786L2.01 22.873Z" fill="#fff"/></svg>
